X: 1
T: Castles in the Air
C: Trad
M: 4/4
L: 1/8
R: Hornpipe
K: Dmaj
(3DEF |G2 G>B D2 D>F |G>F G>A B2B2 |\
c>B c>e d>B A>G | A<B A>G E2 (3DEF |
G2 G>B D2 D>F | G>F G>A B2B2 |\
c>d e<g d>B  G>A | B>c B>A G2 :|
(3Bcd | e2 e>g d2d2 |c>B c>d B2B2 | \
c>B c>e d>B A>G | A<B A>G E>c B>A |
G2 G>B D2 (3DEF | G>F G>A B2B2 | \
c>d e<g d>B G>A | B>c B>A G2 :|